app/assets/images/globe-blue.svg

<svg xmlns="http://www.w3.org/2000/svg" viewBox="0 0 12 12"><path d="M12 6a6 6 0 00-5.95-6h-.1a6 6 0 000 12h.1A6 6 0 0012 6zM1.28 4.13H2.9a10.8 10.8 0 00-.14 1.42H.94a5 5 0 01.34-1.42zm9.43 0a5 5 0 01.34 1.43H9.24a10.8 10.8 0 00-.14-1.42h1.62zm-2.4 1.43H6.46V4.14h1.69a9.83 9.83 0 01.16 1.42zM6.46 3.22V1a3.58 3.58 0 011.47 2.22zM5.54 1v2.22H4.07A3.57 3.57 0 015.54 1zm0 3.1v1.46H3.69a9.7 9.7 0 01.15-1.42zM.95 6.49h1.81a10.92 10.92 0 00.14 1.37H1.28a5.05 5.05 0 01-.33-1.37zm2.75 0h1.84v1.37H3.85a9.73 9.73 0 01-.16-1.37zm1.84 2.3V11a3.58 3.58 0 01-1.47-2.22zM6.46 11V8.78h1.47A3.58 3.58 0 016.46 11zm0-3.1V6.49h1.85a9.87 9.87 0 01-.15 1.37zm2.78-1.41h1.81a5 5 0 01-.33 1.37H9.1a10.92 10.92 0 00.14-1.37zm1-3.27H8.89a6.66 6.66 0 00-.79-1.83 5.1 5.1 0 012.14 1.83zM3.89 1.39a6.66 6.66 0 00-.79 1.83H1.76a5.1 5.1 0 012.13-1.83zM1.76 8.78h1.35a6.68 6.68 0 00.79 1.83 5.11 5.11 0 01-2.14-1.83zm6.35 1.83a6.68 6.68 0 00.79-1.83h1.35a5.12 5.12 0 01-2.14 1.83z" fill="#0071bc" fill-rule="evenodd"/></svg>

<svg xmlns="http://www.w3.org/2000/svg" viewBox="0 0 12 12"><title>globe-blue</title><g id="Layer_2" data-name="Layer 2"><g id="Layer_1-2" data-name="Layer 1"><path d="M12,6A6,6,0,0,0,6.05,0h-.1a6,6,0,0,0,0,12h.1A6,6,0,0,0,12,6ZM1.28,4.13H2.9a10.8,10.8,0,0,0-.14,1.42H.94A5,5,0,0,1,1.28,4.13Zm9.43,0a5,5,0,0,1,.34,1.43H9.24A10.8,10.8,0,0,0,9.1,4.14h1.62ZM8.31,5.56H6.46V4.14H8.15A9.83,9.83,0,0,1,8.31,5.56ZM6.46,3.22V1A3.58,3.58,0,0,1,7.93,3.22ZM5.54,1V3.22H4.07A3.57,3.57,0,0,1,5.54,1Zm0,3.1V5.56H3.69a9.7,9.7,0,0,1,.15-1.42ZM.95,6.49H2.76A10.92,10.92,0,0,0,2.9,7.86H1.28A5.05,5.05,0,0,1,.95,6.49Zm2.75,0H5.54V7.86H3.85A9.73,9.73,0,0,1,3.69,6.49Zm1.84,2.3V11A3.58,3.58,0,0,1,4.07,8.78ZM6.46,11V8.78H7.93A3.58,3.58,0,0,1,6.46,11Zm0-3.1V6.49H8.31a9.87,9.87,0,0,1-.15,1.37ZM9.24,6.49h1.81a5,5,0,0,1-.33,1.37H9.1A10.92,10.92,0,0,0,9.24,6.49Zm1-3.27H8.89a6.66,6.66,0,0,0-.79-1.83A5.1,5.1,0,0,1,10.24,3.22ZM3.89,1.39a6.66,6.66,0,0,0-.79,1.83H1.76A5.1,5.1,0,0,1,3.89,1.39ZM1.76,8.78H3.11a6.68,6.68,0,0,0,.79,1.83A5.11,5.11,0,0,1,1.76,8.78Zm6.35,1.83a6.68,6.68,0,0,0,.79-1.83h1.35A5.12,5.12,0,0,1,8.11,10.61Z" fill="#0071bc" fill-rule="evenodd"/></g></g></svg>
